source/img/services/icon-services/icon-cash.svg

<svg width="200" height="130" viewBox="0 0 200 130" fill="none" xmlns="http://www.w3.org/2000/svg">
<g clip-path="url(#clip0)">
<g filter="url(#filter0_di)">
<path d="M163.413 105.824C163.174 106.956 162.803 108.057 162.307 109.103L162.132 109.452C158.562 116.36 150.335 118.261 146.901 119.154C142.225 120.337 85.1995 130.795 64.8845 114.866C44.5696 98.9358 75.7502 46.5671 94.9786 31.6461C94.9786 31.6461 81.3965 12.5148 85.995 3.5312C90.7875 0.543133 99.8487 -0.349405 109.279 0.116267C110.85 0.116267 112.441 0.271491 114.013 0.407312L115.682 0.562536C126.489 1.68791 136.831 4.2297 141.352 7.04314C147.173 12.5148 129.71 31.6461 129.71 31.6461C129.71 31.6461 160.949 66.3969 163.685 99.5567C163.932 101.647 163.84 103.763 163.413 105.824Z" fill="#0A3D76"/>
</g>
<path d="M109.608 34.576C109.587 34.1359 109.43 33.7131 109.159 33.3657C108.888 33.0183 108.516 32.7633 108.095 32.6357C107.294 32.4444 106.472 32.3596 105.65 32.3834C104.932 32.3834 104.233 32.3834 103.516 32.3834C102.08 32.3834 100.644 32.3834 99.2275 32.2476C98.9397 32.1694 98.6378 32.1586 98.3452 32.216C98.0525 32.2734 97.7771 32.3974 97.5402 32.5785C97.3033 32.7597 97.1113 32.9929 96.9792 33.2603C96.8471 33.5276 96.7783 33.8218 96.7783 34.12C96.7783 34.4182 96.8471 34.7124 96.9792 34.9797C97.1113 35.247 97.3033 35.4803 97.5402 35.6614C97.7771 35.8425 98.0525 35.9666 98.3452 36.024C98.6378 36.0814 98.9397 36.0706 99.2275 35.9924C100.566 36.1088 101.983 36.1476 103.244 36.3416C104.843 36.6965 106.492 36.7622 108.114 36.5357C108.552 36.4326 108.94 36.1809 109.212 35.8234C109.485 35.466 109.625 35.0251 109.608 34.576Z" fill="#A62E41"/>
<path d="M127.652 35.488C127.536 33.1014 124.043 34.1686 122.568 34.2462C121.695 34.2462 120.822 34.2462 119.949 34.2462C119.565 34.2201 119.183 34.1747 118.804 34.1104C118.628 34.0469 118.446 34.0014 118.261 33.9746L118.048 33.7999C117.848 33.5234 117.578 33.3046 117.267 33.1654C116.955 33.0263 116.612 32.9718 116.273 33.0074C115.934 33.0431 115.61 33.1676 115.334 33.3684C115.058 33.5692 114.84 33.8392 114.701 34.1512C114.563 34.4632 114.51 34.8061 114.546 35.1454C114.583 35.4846 114.708 35.8082 114.91 36.0835C115.112 36.3589 115.382 36.5761 115.695 36.7134C116.007 36.8507 116.35 36.9032 116.689 36.8656C117.433 36.9869 118.162 37.1886 118.862 37.4671C119.753 37.7255 120.672 37.8689 121.598 37.894C123.434 38.1036 125.29 37.7446 126.915 36.8656C127.15 36.7232 127.342 36.5202 127.472 36.2778C127.602 36.0354 127.664 35.7626 127.652 35.488Z" fill="#A62E41"/>
<g filter="url(#filter1_ii)">
<path d="M124.434 77.6118C122.145 75.0895 121.737 74.4103 116.828 72.6447V63.5253C117.783 64.5895 118.296 65.9769 118.264 67.4059L125.831 66.1059C125.401 63.7445 124.336 61.5449 122.749 59.7434C121.163 57.9419 119.116 56.6064 116.828 55.8805V51.0297C115.614 50.952 114.395 50.952 113.181 51.0297C113.111 52.3676 113.111 53.7082 113.181 55.0462C111.991 54.8875 110.789 54.842 109.591 54.9103V51.0297C108.376 50.952 107.158 50.952 105.943 51.0297C105.943 51.0297 105.943 52.8148 105.943 55.5894C102.243 56.6329 99.0786 59.0475 97.0956 62.3417C94.9418 66.2223 96.2806 71.0536 100.976 74.2357C102.581 75.3631 104.33 76.2702 106.176 76.9327C106.176 81.0268 106.351 85.1208 106.428 88.8074C104.299 86.9597 102.681 84.5939 101.733 81.9387C99.4607 82.924 97.2624 84.0717 95.1553 85.373C95.1553 85.373 97.5612 95.5596 106.428 97.694H106.7C106.797 100.895 106.797 102.836 106.797 102.836H109.572V98.3148C111.036 98.529 112.519 98.5875 113.996 98.4895C113.996 101.186 113.996 102.836 113.996 102.836H116.77V98.0044C118.586 97.509 120.282 96.651 121.757 95.482C126.743 91.6014 129.673 83.2581 124.434 77.6118ZM112.191 61.2163L113.181 61.4297C113.181 64.4566 113.297 67.9103 113.355 71.5193C112.036 71.1118 110.736 70.782 109.475 70.4133V61.0223C110.382 60.9562 111.295 61.0018 112.191 61.1581V61.2163ZM103.751 65.582C104.033 64.2581 104.802 63.0882 105.905 62.3029C105.905 64.4178 105.905 66.7462 106.021 69.1521C104.313 68.2596 103.363 67.1924 103.751 65.5238V65.582ZM109.572 90.6119V77.9029C110.922 78.1676 112.252 78.5308 113.549 78.9895C113.646 83.2387 113.743 87.391 113.821 91.0193C112.375 91.2018 110.906 91.0423 109.533 90.5536L109.572 90.6119ZM116.867 89.991V81.085C119.797 83.9954 119.545 87.9925 116.828 89.9328L116.867 89.991Z" fill="#F5F9FF"/>
</g>
<path d="M65.021 88.0506C65.9523 80.561 70.2792 72.7222 74.0822 66.2998C76.2107 62.7449 78.5362 59.3117 81.0479 56.0162C83.6867 52.5625 87.2763 49.3028 89.2942 45.4804C91.3121 41.658 97.3464 46.5476 93.1748 49.4774C87.1792 53.6685 82.7942 63.2729 79.5927 69.6177C76.3912 75.9625 74.1986 83.4327 70.6091 89.6804C69.2121 92.1446 64.6523 91.1939 65.021 88.0506Z" fill="#235C9B" fill-opacity="0.6"/>
<path d="M135.242 11.3699C134.728 11.1675 134.16 11.1539 133.637 11.3315C133.115 11.5092 132.673 11.8667 132.389 12.3401C130.789 14.7278 129.369 17.2313 128.14 19.8297C126.491 22.9729 131.4 25.6506 132.894 22.5073C134.338 19.7905 135.577 16.9691 136.6 14.067C136.735 13.5292 136.672 12.9608 136.423 12.4656C136.173 11.9705 135.754 11.5815 135.242 11.3699Z" fill="#0E4786" fill-opacity="0.6"/>
<path d="M98.5896 24.7386C95.6598 19.0341 95.8538 13.5819 94.9419 7.50872C94.612 5.35498 91.2941 5.56842 90.8284 7.50872C89.2762 13.8729 92.5747 21.0908 96.3195 26.0386C96.5135 26.293 96.7934 26.4682 97.107 26.5317C97.4206 26.5951 97.7466 26.5424 98.0243 26.3834C98.3019 26.2244 98.5123 25.9699 98.6163 25.6674C98.7203 25.3648 98.7109 25.0347 98.5896 24.7386Z" fill="#114F92" fill-opacity="0.6"/>
</g>
<defs>
<filter id="filter0_di" x="50.2676" y="-8" width="119.553" height="137.615" filterUnits="userSpaceOnUse" color-interpolation-filters="sRGB">
<feFlood flood-opacity="0" result="BackgroundImageFix"/>
<feColorMatrix in="SourceAlpha" type="matrix" values="0 0 0 0 0 0 0 0 0 0 0 0 0 0 0 0 0 0 127 0"/>
<feOffset dx="2" dy="2"/>
<feGaussianBlur stdDeviation="2"/>
<feColorMatrix type="matrix" values="0 0 0 0 0 0 0 0 0 0 0 0 0 0 0 0 0 0 0.2 0"/>
<feBlend mode="normal" in2="BackgroundImageFix" result="effect1_dropShadow"/>
<feBlend mode="normal" in="SourceGraphic" in2="effect1_dropShadow" result="shape"/>
<feColorMatrix in="SourceAlpha" type="matrix" values="0 0 0 0 0 0 0 0 0 0 0 0 0 0 0 0 0 0 127 0" result="hardAlpha"/>
<feOffset dx="-8" dy="-8"/>
<feGaussianBlur stdDeviation="6"/>
<feComposite in2="hardAlpha" operator="arithmetic" k2="-1" k3="1"/>
<feColorMatrix type="matrix" values="0 0 0 0 0 0 0 0 0 0 0 0 0 0 0 0 0 0 0.3 0"/>
<feBlend mode="normal" in2="shape" result="effect2_innerShadow"/>
</filter>
<filter id="filter1_ii" x="95.1553" y="50.9714" width="34.049" height="53.8643" filterUnits="userSpaceOnUse" color-interpolation-filters="sRGB">
<feFlood flood-opacity="0" result="BackgroundImageFix"/>
<feBlend mode="normal" in="SourceGraphic" in2="BackgroundImageFix" result="shape"/>
<feColorMatrix in="SourceAlpha" type="matrix" values="0 0 0 0 0 0 0 0 0 0 0 0 0 0 0 0 0 0 127 0" result="hardAlpha"/>
<feOffset dy="2"/>
<feGaussianBlur stdDeviation="2"/>
<feComposite in2="hardAlpha" operator="arithmetic" k2="-1" k3="1"/>
<feColorMatrix type="matrix" values="0 0 0 0 0 0 0 0 0 0 0 0 0 0 0 0 0 0 0.15 0"/>
<feBlend mode="normal" in2="shape" result="effect1_innerShadow"/>
<feColorMatrix in="SourceAlpha" type="matrix" values="0 0 0 0 0 0 0 0 0 0 0 0 0 0 0 0 0 0 127 0" result="hardAlpha"/>
<feOffset dx="2" dy="2"/>
<feGaussianBlur stdDeviation="2"/>
<feComposite in2="hardAlpha" operator="arithmetic" k2="-1" k3="1"/>
<feColorMatrix type="matrix" values="0 0 0 0 0 0 0 0 0 0 0 0 0 0 0 0 0 0 0.2 0"/>
<feBlend mode="normal" in2="effect1_innerShadow" result="effect2_innerShadow"/>
</filter>
<clipPath id="clip0">
<rect width="200" height="130" fill="white"/>
</clipPath>
</defs>
</svg>

<svg width="200" height="130" fill="none" xmlns="http://www.w3.org/2000/svg"><g clip-path="url(#clip0)"><g filter="url(#filter0_di)"><path d="M163.413 105.824a14.78 14.78 0 01-1.106 3.279l-.175.349c-3.57 6.908-11.797 8.809-15.231 9.702-4.676 1.183-61.702 11.641-82.017-4.288C44.57 98.936 75.75 46.567 94.98 31.646c0 0-13.582-19.131-8.984-28.115C90.787.543 99.849-.349 109.279.116c1.571 0 3.162.155 4.734.291l1.669.156c10.807 1.125 21.149 3.667 25.67 6.48 5.821 5.472-11.642 24.603-11.642 24.603s31.239 34.75 33.975 67.91a19.57 19.57 0 01-.272 6.268z" fill="#0A3D76"/></g><path d="M109.608 34.576a2.133 2.133 0 00-1.513-1.94 9.359 9.359 0 00-2.445-.253h-2.134c-1.436 0-2.872 0-4.288-.135a1.94 1.94 0 100 3.744c1.338.117 2.755.156 4.016.35 1.599.355 3.248.42 4.87.194a1.937 1.937 0 001.494-1.96zm18.044.912c-.116-2.387-3.609-1.32-5.084-1.242h-2.619a11.51 11.51 0 01-1.145-.136 2.77 2.77 0 00-.543-.135l-.213-.175a1.945 1.945 0 00-1.775-.793 1.942 1.942 0 00-1.363 3.077 1.939 1.939 0 001.779.782c.744.12 1.473.323 2.173.601.891.258 1.81.402 2.736.427a9.024 9.024 0 005.317-1.028 1.535 1.535 0 00.737-1.378z" fill="#A62E41"/><g filter="url(#filter1_ii)"><path d="M124.434 77.612c-2.289-2.522-2.697-3.202-7.606-4.967v-9.12a5.62 5.62 0 011.436 3.88l7.567-1.3a13.212 13.212 0 00-9.003-10.225v-4.85a28.559 28.559 0 00-3.647 0 38.436 38.436 0 000 4.016 18.983 18.983 0 00-3.59-.136v-3.88a28.575 28.575 0 00-3.648 0v4.56a15.116 15.116 0 00-8.847 6.752c-2.154 3.88-.815 8.712 3.88 11.894a21.94 21.94 0 005.2 2.697c0 4.094.175 8.188.252 11.874a16.396 16.396 0 01-4.695-6.868 51.538 51.538 0 00-6.578 3.434s2.406 10.187 11.273 12.321h.272c.097 3.201.097 5.142.097 5.142h2.775v-4.521a20.97 20.97 0 004.424.175v4.346h2.774v-4.832a13.93 13.93 0 004.987-2.522c4.986-3.88 7.916-12.224 2.677-17.87zm-12.243-16.396l.99.214c0 3.027.116 6.48.174 10.09-1.319-.408-2.619-.738-3.88-1.107v-9.39c.907-.067 1.82-.021 2.716.135v.058zm-8.44 4.366a5.41 5.41 0 012.154-3.28c0 2.116 0 4.444.116 6.85-1.708-.892-2.658-1.96-2.27-3.628v.058zm5.821 25.03v-12.71c1.35.266 2.68.629 3.977 1.088.097 4.249.194 8.401.272 12.03a9.312 9.312 0 01-4.288-.466l.039.058zm7.295-.621v-8.906c2.93 2.91 2.678 6.908-.039 8.848l.039.058z" fill="#F5F9FF"/></g><path d="M65.021 88.05c.931-7.489 5.258-15.328 9.061-21.75a111.217 111.217 0 016.966-10.284c2.639-3.453 6.228-6.713 8.246-10.536 2.018-3.822 8.052 1.068 3.88 3.997-5.995 4.192-10.38 13.796-13.581 20.14-3.202 6.346-5.394 13.816-8.984 20.063-1.397 2.465-5.957 1.514-5.588-1.63z" fill="#235C9B" fill-opacity=".6"/><path d="M135.242 11.37a2.332 2.332 0 00-2.853.97 58.01 58.01 0 00-4.249 7.49c-1.649 3.143 3.26 5.82 4.754 2.677a61.664 61.664 0 003.706-8.44 2.312 2.312 0 00-1.358-2.697z" fill="#0E4786" fill-opacity=".6"/><path d="M98.59 24.739c-2.93-5.705-2.736-11.157-3.648-17.23-.33-2.154-3.648-1.94-4.114 0-1.552 6.364 1.747 13.582 5.492 18.53a1.32 1.32 0 002.27-1.3z" fill="#114F92" fill-opacity=".6"/></g><defs><filter id="filter0_di" x="50.268" y="-8" width="119.553" height="137.615" filterUnits="userSpaceOnUse" color-interpolation-filters="sRGB"><feFlood flood-opacity="0" result="BackgroundImageFix"/><feColorMatrix in="SourceAlpha" values="0 0 0 0 0 0 0 0 0 0 0 0 0 0 0 0 0 0 127 0"/><feOffset dx="2" dy="2"/><feGaussianBlur stdDeviation="2"/><feColorMatrix values="0 0 0 0 0 0 0 0 0 0 0 0 0 0 0 0 0 0 0.2 0"/><feBlend in2="BackgroundImageFix" result="effect1_dropShadow"/><feBlend in="SourceGraphic" in2="effect1_dropShadow" result="shape"/><feColorMatrix in="SourceAlpha" values="0 0 0 0 0 0 0 0 0 0 0 0 0 0 0 0 0 0 127 0" result="hardAlpha"/><feOffset dx="-8" dy="-8"/><feGaussianBlur stdDeviation="6"/><feComposite in2="hardAlpha" operator="arithmetic" k2="-1" k3="1"/><feColorMatrix values="0 0 0 0 0 0 0 0 0 0 0 0 0 0 0 0 0 0 0.3 0"/><feBlend in2="shape" result="effect2_innerShadow"/></filter><filter id="filter1_ii" x="95.155" y="50.971" width="34.049" height="53.864" filterUnits="userSpaceOnUse" color-interpolation-filters="sRGB"><feFlood flood-opacity="0" result="BackgroundImageFix"/><feBlend in="SourceGraphic" in2="BackgroundImageFix" result="shape"/><feColorMatrix in="SourceAlpha" values="0 0 0 0 0 0 0 0 0 0 0 0 0 0 0 0 0 0 127 0" result="hardAlpha"/><feOffset dy="2"/><feGaussianBlur stdDeviation="2"/><feComposite in2="hardAlpha" operator="arithmetic" k2="-1" k3="1"/><feColorMatrix values="0 0 0 0 0 0 0 0 0 0 0 0 0 0 0 0 0 0 0.15 0"/><feBlend in2="shape" result="effect1_innerShadow"/><feColorMatrix in="SourceAlpha" values="0 0 0 0 0 0 0 0 0 0 0 0 0 0 0 0 0 0 127 0" result="hardAlpha"/><feOffset dx="2" dy="2"/><feGaussianBlur stdDeviation="2"/><feComposite in2="hardAlpha" operator="arithmetic" k2="-1" k3="1"/><feColorMatrix values="0 0 0 0 0 0 0 0 0 0 0 0 0 0 0 0 0 0 0.2 0"/><feBlend in2="effect1_innerShadow" result="effect2_innerShadow"/></filter><clipPath id="clip0"><path fill="#fff" d="M0 0h200v130H0z"/></clipPath></defs></svg>
